usr/share/icons/biglinux-icons-material/16/actions/tools.svg

<svg width="16" height="16" version="1.1" xmlns="http://www.w3.org/2000/svg">
 <style id="current-color-scheme" type="text/css">.ColorScheme-Text {
            color:#363636;
        }</style>
 <path d="m6 2c-0.554 0-1 0.446-1 1v1h-1c-1.108 0-2 0.892-2 2v6c0 1.108 0.892 2 2 2h8c1.108 0 2-0.892 2-2v-6c0-1.108-0.892-2-2-2h-1v-1c0-0.554-0.446-1-1-1h-4zm0 1h4v1h-4v-1zm-2 2h1 1 4 1 1c0.554 0 1 0.446 1 1v1h-2v-1h-1v1h-4v-1h-1v1h-2v-1c0-0.554 0.446-1 1-1zm-1 3h2v1h1v-1h4v1h1v-1h2v4c0 0.554-0.446 1-1 1h-8c-0.554 0-1-0.446-1-1v-4z" class="ColorScheme-Text" fill="currentColor"/>
</svg>

<svg xmlns="http://www.w3.org/2000/svg" width="16" height="16"><path fill="currentColor" d="M6 2c-.554 0-1 .446-1 1v1H4c-1.108 0-2 .892-2 2v6c0 1.108.892 2 2 2h8c1.108 0 2-.892 2-2V6c0-1.108-.892-2-2-2h-1V3c0-.554-.446-1-1-1H6zm0 1h4v1H6V3zM4 5h8c.554 0 1 .446 1 1v1h-2V6h-1v1H6V6H5v1H3V6c0-.554.446-1 1-1zM3 8h2v1h1V8h4v1h1V8h2v4c0 .554-.446 1-1 1H4c-.554 0-1-.446-1-1V8z" style="color:#dedede"/></svg>
